X:7
T:The Black Rogue / The Piper's Chair
M:6/8
L:1/8
S:The Black Rogue: Tommy Keane & Jacqueline McCarthy, The wind among the reeds
S:The Piper's Chair: Micho Russell
R:Jig
Z:Julie Ross
K:D
"The Black Rogue"
d | cAA BAG | cAA A2d | cAA BAG | AFD D2d |
cAA BAG | cAA AFD | ~G3 BAG | AFD D2 :|
|: e | ~f3 gfg | afd cBA | faf gfg | afd d2f |
a2f gfe | fed efd | cAA BAG | AFD D2 :|
K:G
"The Piper's Chair"
G2G GFD | c3 cGc | d2d cAG | A2G FDD |
DGG GFG | c2c cGc | ded cAF | AGG G3 ||
GAG GFG | c3 cGc | d2d cAG | A2G FDD |
DGG GFD | c2c cGc | ded cAF | AGG G3 ||
|: g3 agf  | d2g gfg | GBd fef | A2B cBA |
GBd g2f | d2e fdd | Add cAF |1 AGG G3 ||
